X: 3251
T: PORT PATRICK
%R: jig
B: James Kerr "Merry Melodies" v.3 p.28 #251
Z: 2016 John Chambers <jc:trillian.mit.edu>
M: 6/8
L: 1/8
K: G
ug |\
dBG GAB | vc2vB uA2uG |\
dBG GAG | A2B c2g |\
dBG GAB | c2B A2G |\
BdB cAd | BGG G2 :|
|: d |\
ece dBd | ece dBd |\
efg dBG | A2B c2e |\
def gfe | dcB A2G |\
BdB cAd | BGG G2 :|

%%sep 1 1 500
%%sep 1 1 500

